X:1
T:There Is Nothing Too Good to Be True
T:George P. Hott, 1913
T:There Is Nothing Too Good to Be True
T:Public Domain
T:Public Domain
T:Public Domain
C:George P. Hott, 1913
Z:Public Domain
%%score ( 1 2 ) ( 3 4 )
L:1/8
M:4/4
K:Eb
V:1 treble 
V:2 treble 
V:3 bass 
V:4 bass 
V:1
 E[EF] | [EG]2 [EG][EG] [EG]2 [DF][DF] | E6 [EG][FA] | [GB]2 [GB][GB] (GE)[DA][EG] | %4
w: 1.~When we|of earth’s tri- als and cares,|And the tears|our eye- lids be- * dew, And|
w: 2.~When we|how as sin- ners we’re lost,|And a- wait|ful pun- ish- ment * due, And|
w: 3.~When we|of the suf- ferings of death,|And the grave|er wait- ing in * view, But|
w: 4.~When we|of our loved ones of yore,|How death ga-|from me and from * you, But|
 [DF]6 [EG][GB] | [Ge]2 [Ae][Ae] [Ge]2 [Bd][Ac] | [GB]6 (EF) | [EG][EG] z [FA] [EG] z [DF][DF] | %8
w: told they’re in|Heav- en un- known, It seems|just too *|to be true. * * *|
w: told of His|won- der- ful cross, It seems|just too *|to be true. But is it|
w: told how Christ|con- quered them all, It seems|just too *|to be true. * * *|
w: told that we’ll|meet them once more, It seems|just too *|to be true. * * *|
 E6 ||"^Refrain" [B,E]2 | [EG][EG] z [EG] [EG] z [DF][DF] | E6 [EB]2 | %12
w: ||||
w: too|to|be true? Oh, is it too|good to|
w: ||||
w: ||||
 [Ec][Ec] z [Fd] [Fd] z [Ec][Ec] | (D2 DE F2) [EB][FB] | [Ge]2 [Ae][Ae] [Ge]2 [Bd][Ac] | %15
w: |||
w: true? When we think of the|won- * * * der- ful|of our Lord, There is no-|
w: |||
w: |||
 (GE)[DA][DA] [EG]2 E[EF] | [EG][EG] z [FA] [EG] z [DF][DF] | (E2 C_C B,2) |] %18
w: |||
w: thing * too good to be true.|||
w: |||
w: |||
V:2
 E x | x8 | E6 x2 | x4 B2 x2 | x8 | x8 | x6 E2 | x8 | E6 || x2 | x8 | E6 x2 | x8 | B6 x2 | x8 | %15
w: think||that|are|||good|||||||||
w: think||fear-|are|||good||good|||be||love||
w: think||ev-|are|||good|||||||||
w: think||thered|are|||good|||||||||
 B2 x3 E x2 | x8 | E6 |] %18
w: |||
w: |||
w: |||
w: |||
V:3
 [E,G,][E,A,] | [E,B,]2 [E,B,][E,B,] [E,B,]2 [B,,A,][B,,A,] | [E,G,]6 [E,B,][E,B,] | %3
w: ~ ~|~ ~ ~ ~ ~ ~|~ ~ ~|
 [E,E]2 [E,E][E,E] ([E,E][G,B,])[F,B,][E,B,] | [B,,B,]6 [E,B,][E,B,] | %5
w: ~ ~ ~ ~ * ~ ~|~ ~ ~|
 [E,B,]2 [E,C][E,C] [E,B,]2 [E,C][E,D] | [E,E]6 ([G,,B,][A,,C]) | %7
w: ~ ~ ~ ~ ~ ~|~ ~ *|
 [B,,B,][B,,B,] z [B,,C] [B,,B,] z [B,,A,][B,,A,] | [E,G,]6 || [E,G,]2 | %10
w: ~ ~ ~ ~ ~ ~|~|~|
 [E,B,][E,B,] z [E,B,] [E,B,] z [B,,A,][B,,A,] | [E,G,]6 [E,G,]2 | %12
w: ~ ~ ~ ~ ~ ~|~ ~|
 [C,G,][C,G,] z [F,B,] [F,B,] z [F,=A,][F,A,] | B,2 F,G, A,2 [E,G,][E,A,] | %14
w: ~ ~ ~ ~ ~ ~|~ to be true? ~ ~|
 [E,B,]2 [E,C][E,C] [E,B,]2 [E,C][E,D] | ([E,E][G,B,])[F,B,][F,B,] [E,B,]2 [G,,B,][A,,C] | %16
w: ~ ~ ~ ~ ~ ~|~ * ~ ~ ~ ~ ~|
 [B,,B,][B,,B,] z [B,,C] [B,,B,] z [B,,A,][B,,A,] | G,2 A,A, G,2 |] %18
w: ~ ~ ~ ~ ~ ~|to be true. *|
V:4
 x2 | x8 | x8 | x8 | x8 | x8 | x8 | x8 | x6 || x2 | x8 | x8 | x8 | B,,6 x2 | x8 | x8 | x8 | E,6 |] %18
w: |||||||||||||~|||||

